X: 3
T: The Butlers Of Glen Avenue
R: jig
M: 6/8
L: 1/8
K: Gmaj
|: DEG EDB, | DEG B3 | DEG ABe | dBe dBA |
DEG EDB, | DEG B3 | dBd gfe | dBA G3 :|
|: gab age | deg B3 | gab gab | dBd e2 d |
gab age | deg B3 | dBd gfe | dBA G3 :|


Tune 820	Setting 820

